resources/svg/twitter.svg

<svg width="20" height="19" viewBox="0 0 20 19" fill="none" xmlns="http://www.w3.org/2000/svg">
<g id="mdi:twitter">
<path id="Vector" d="M17.9462 4.92436C17.359 5.19128 16.726 5.36669 16.0702 5.45057C16.7413 5.04638 17.2598 4.40578 17.5039 3.63552C16.8709 4.01684 16.1693 4.28376 15.4295 4.43628C14.8271 3.78042 13.9806 3.39911 13.0196 3.39911C11.2275 3.39911 9.76323 4.86335 9.76323 6.67078C9.76323 6.93007 9.79374 7.18174 9.84712 7.41815C7.13217 7.28088 4.71464 5.97679 3.1055 4.00158C2.82333 4.48204 2.66318 5.04638 2.66318 5.64123C2.66318 6.77754 3.23515 7.78421 4.11979 8.35618C3.57833 8.35618 3.075 8.20366 2.63267 7.97487V7.99775C2.63267 9.58401 3.76136 10.911 5.25611 11.2084C4.77621 11.3397 4.27239 11.358 3.78424 11.2618C3.99137 11.9119 4.39704 12.4808 4.94421 12.8884C5.49137 13.2961 6.15253 13.522 6.83474 13.5344C5.67832 14.4499 4.24486 14.9448 2.76994 14.9376C2.51065 14.9376 2.25136 14.9224 1.99207 14.8919C3.44106 15.8223 5.16459 16.3638 7.01015 16.3638C13.0196 16.3638 16.3218 11.3762 16.3218 7.05209C16.3218 6.90719 16.3218 6.76992 16.3142 6.62502C16.9548 6.16744 17.5039 5.58785 17.9462 4.92436Z" fill="white"/>
</g>
</svg>

<svg xmlns="http://www.w3.org/2000/svg" fill="none" viewBox="0 0 20 19">
  <path fill="currentColor" d="M17.946 4.924a6.533 6.533 0 0 1-1.876.527 3.278 3.278 0 0 0 1.434-1.815 6.59 6.59 0 0 1-2.075.8C14.828 3.78 13.982 3.4 13.02 3.4a3.268 3.268 0 0 0-3.256 3.272c0 .26.03.51.084.747a9.3 9.3 0 0 1-6.741-3.416 3.237 3.237 0 0 0-.443 1.64A3.22 3.22 0 0 0 4.12 8.355a3.236 3.236 0 0 1-1.487-.381v.023a3.274 3.274 0 0 0 2.623 3.21c-.48.132-.984.15-1.472.054a3.264 3.264 0 0 0 3.05 2.272 6.498 6.498 0 0 1-4.064 1.404c-.26 0-.519-.016-.778-.046a9.262 9.262 0 0 0 5.018 1.472c6.01 0 9.312-4.988 9.312-9.312 0-.145 0-.282-.008-.427a6.537 6.537 0 0 0 1.632-1.7Z"/>
</svg>
